public/logo-dark.svg

<svg width="40" height="40" viewBox="0 0 40 40" fill="none" xmlns="http://www.w3.org/2000/svg">
<g id="humbarger">
<path id="Vector" fill-rule="evenodd" clip-rule="evenodd" d="M17.8742 0V4.82342L19.452 18.5184C19.4504 18.5189 19.4488 18.5195 19.4472 18.52L10.7718 7.76581L7.36108 4.35516L5.91347 5.80278L4.35513 7.36175L7.76581 10.7724L18.5331 19.3149C18.5289 19.323 18.5247 19.3312 18.5206 19.3394L4.82342 17.874H0V19.9212V22.1259H4.82342L18.4174 20.5596C18.4235 20.58 18.43 20.6001 18.437 20.6201L7.76575 29.2286L4.35506 32.6393L5.8024 34.0867L7.36115 35.6459L10.7718 32.2353L19.2477 21.5519C19.274 21.5653 19.3006 21.5781 19.3277 21.5902L17.8742 35.1765V39.9999H19.9212L22.1259 40V35.1765L20.5655 21.6332C20.5938 21.623 20.6218 21.6119 20.6494 21.6001L29.2282 32.2345L32.6389 35.6451L34.0865 34.1975L35.6449 32.6384L32.2342 29.2277L21.5211 20.7282C21.5297 20.7082 21.5378 20.688 21.5456 20.6676L35.1767 22.1259H40.0001V20.0788V17.8741H35.1767L21.5282 19.4466C21.5242 19.4369 21.5202 19.4273 21.516 19.4178L32.2343 10.7712L35.645 7.36055L34.1977 5.91324L32.6389 4.35405L29.2283 7.76475L20.6612 18.563C20.6596 18.5622 20.6578 18.5615 20.6562 18.5608L22.1259 4.82342V0H20.0789H17.8742Z" fill="#231F20"/>
</g>
</svg>

<svg width="40" height="40" fill="none" xmlns="http://www.w3.org/2000/svg"><path fill-rule="evenodd" clip-rule="evenodd" d="M17.874 0v4.823l1.578 13.695-.005.002-8.675-10.754-3.41-3.41-1.449 1.447-1.558 1.559 3.41 3.41 10.768 8.543a1.875 1.875 0 0 0-.012.024L4.823 17.874H0V22.126h4.823l13.594-1.566.02.06L7.766 29.23l-3.41 3.41 1.446 1.448 1.56 1.559 3.41-3.41 8.476-10.684.08.038-1.454 13.586V40H22.126v-4.824l-1.56-13.543c.028-.01.056-.021.083-.033l8.58 10.634 3.41 3.411 1.447-1.448 1.559-1.559-3.41-3.41-10.714-8.5.025-.06 13.63 1.458H40V17.874h-4.823l-13.649 1.573a1.244 1.244 0 0 0-.012-.03l10.718-8.646 3.411-3.41-1.447-1.448-1.56-1.559-3.41 3.41-8.567 10.799-.005-.002 1.47-13.738V0H17.874Z" fill="#231F20"/></svg>
